!!!SOCIAL_FUNCTION:	cremation legend songs
!!!PDT:	1932
!!!OTL: No_5_The_Wonder-boy_Selects_a_New_Name.krn
!!!REG: Southwest
!!!LANG: Non-Tone
!!!LING_GROUP: Yuman-Cochimi
**kern
*staff1
=1-
*clefF4
*k[f#c#g#]
*M2/4
4r
8F#\L
8F#\J
=2!|:
4A\
8G#\L
8F#\J
=3
8.A\L
16F#\Jk
8F#\L
8F#\J
=4
8.F#\L
16F#\Jk
8F#\L
8F#\J
=5||
*M3/4
8F#\L
8F#\J
8F#\
8r
8F#\L
8F#\J
=6||
*M2/4
4A\
8G#\L
8F#\J
=7
8.A\L
16F#\Jk
8F#\L
8F#\J
=8
8.F#\L
16F#\Jk
8F#\L
8F#\J
=9||
*M3/4
4F#\
4F#\
8F#\
8r
=10||
*M2/4
4F#\
8F#\L
8G#\J
=11
8F#\L
8F#\J
8.F#\L
16G#\Jk
=12
8F#\L
8G#\J
8F#\L
8G#\J
=13
8.F#\L
16F#\Jk
8G#\
8r
=14
8F#\L
8G#\J
8F#\L
8G#\J
=15
8.F#\L
16F#\Jk
8G#\
8r
=16
8F#\L
8F#\J
8F#\L
8G#\J
=17
8.F#\L
16F#\Jk
8F#\L
8F#\J
=18
8.F#\L
16F#\Jk
8F#\L
8G#\J
=19
=
8r
8E\
8E\L
8F#\J
=20:|!
4F#\
4r
==
*-
